packages/core/src/svgs/tokens/mono/BTC.svg

<svg width="24" height="24" viewBox="0 0 24 24" fill="none" xmlns="http://www.w3.org/2000/svg">
<path d="M19.5144 10.0401C19.8247 7.93475 18.2309 6.81215 16.0357 6.0499L16.7467 3.21297L15.0131 2.78153L14.3214 5.54855L12.9378 5.21774L13.6393 2.43084L11.9051 2L11.1934 4.84716L10.0907 4.58625V4.5766L7.69489 3.97462L7.23332 5.82935C7.23332 5.82935 8.5168 6.13063 8.49632 6.14028C9.19831 6.32105 9.31883 6.78202 9.29893 7.14296L8.49632 10.3909L8.67709 10.4511L8.48667 10.4107L7.35382 14.9523C7.27368 15.1632 7.05255 15.4837 6.56205 15.353C6.58193 15.3832 5.30869 15.0524 5.30869 15.0524L4.44702 17.0275L6.70245 17.5885L7.93532 17.9098L7.21343 20.787L8.94764 21.2178L9.64962 18.3707L11.0428 18.7316L10.3318 21.5686L12.0654 22L12.777 19.1228C15.7344 19.6837 17.9604 19.4639 18.8931 16.7865C19.6445 14.6317 18.8528 13.3983 17.2987 12.5764C18.4315 12.3257 19.2836 11.5736 19.5042 10.0395L19.5144 10.0401ZM15.5543 15.5941C15.0228 17.7495 11.3941 16.5762 10.2214 16.2954L11.1736 12.4763C12.3462 12.777 16.1158 13.3483 15.5543 15.5838V15.5941ZM16.0857 10.01C15.6043 11.9648 12.5769 10.9723 11.6044 10.7319L12.4661 7.27311C13.4489 7.51414 16.5967 7.97511 16.0857 10.01Z" fill="white"/>
</svg>

<svg xmlns="http://www.w3.org/2000/svg" width="24" height="24" fill="none" viewBox="0 0 24 24">
    <path fill="#fff" d="M19.514 10.04c.31-2.105-1.283-3.228-3.478-3.99l.71-2.837-1.733-.431-.692 2.767-1.383-.331.701-2.787L11.905 2l-.712 2.847-1.102-.26v-.01l-2.396-.602-.462 1.854s1.284.302 1.263.311c.702.181.823.642.803 1.003l-.803 3.248.181.06-.19-.04-1.133 4.541c-.08.211-.301.532-.792.401.02.03-1.253-.3-1.253-.3l-.862 1.974 2.255.561 1.233.322-.722 2.877 1.735.43.702-2.846 1.393.36-.711 2.838 1.733.431.712-2.877c2.957.56 5.183.34 6.116-2.337.752-2.154-.04-3.388-1.594-4.21 1.133-.25 1.985-1.002 2.205-2.536zm-3.96 5.554c-.531 2.156-4.16.982-5.333.701l.953-3.819c1.172.301 4.942.872 4.38 3.108zm.532-5.584c-.482 1.955-3.51.962-4.482.722l.862-3.459c.983.241 4.13.702 3.62 2.737"/>
</svg>
